images/logo_clutch_desktop.svg

<svg width="93" height="64" fill="none" xmlns="http://www.w3.org/2000/svg"><g clip-path="url(#a)"><path fill-rule="evenodd" clip-rule="evenodd" d="M24.1802 20.897h4.2311v26.1223h-4.2311V20.897Zm18.9479 17.8421c0 4.0471-3.3113 4.4151-4.415 4.4151-2.5755 0-2.9434-2.3915-2.9434-3.6792V29.3572h-4.231v9.9338c0 2.3915.7358 4.599 2.2075 5.8867 1.2877 1.2877 2.9433 1.8396 4.9669 1.8396 1.4717 0 3.3113-.3679 4.415-1.4717v1.4717h4.2311V29.3572h-4.2311v9.3819Zm8.278-15.8199h4.2311v6.4386h3.1273v4.0471h-3.1273v13.613h-4.2311v-13.613h-3.1273v-4.0471h3.1273v-6.4386Zm20.6035 18.7652c-.9198.7359-2.2076 1.2878-3.4953 1.2878-2.9433 0-4.9669-2.2076-4.9669-5.1509 0-2.9434 2.0236-4.9669 4.9669-4.9669 1.2877 0 2.5755.3679 3.4953 1.2877l.5518.5519 2.9434-2.7594-.7358-.5519c-1.6557-1.4717-3.8632-2.3915-6.2547-2.3915-5.1509 0-9.014 3.8632-9.014 9.014 0 5.1509 3.8631 9.0141 9.014 9.0141 2.3915 0 4.599-.9198 6.2547-2.3915l.7358-.5519-2.9434-2.9433-.5518.5518Zm13.7967-12.6932c2.0235 0 3.3113.5519 4.599 1.8396s1.8396 3.4953 1.8396 5.8867v10.1178h-4.2311V36.5336c0-.0769.0007-.1577.0014-.2418v-.0013c.0108-1.3231.028-3.4361-2.3929-3.4361-1.1037 0-3.8631.3679-3.8631 4.415v9.7499h-4.2311V20.897h4.2311v9.5659c1.1037-1.1038 2.5754-1.4717 4.0471-1.4717ZM68.3305 40.95c1.6255 0 2.9433-1.3178 2.9433-2.9434s-1.3178-2.9434-2.9433-2.9434c-1.6256 0-2.9434 1.3178-2.9434 2.9434s1.3178 2.9434 2.9434 2.9434Zm-56.1077 2.0231c2.3915 0 4.599-.9198 6.0707-2.3915l.5518-.5519 2.7594 2.7594-.5518.5519c-2.2076 2.3915-5.5188 3.6792-8.8301 3.6792-6.80654 0-11.957419-5.5188-11.957419-12.6932 0-7.1745 5.150879-12.6933 12.141319-12.5093 3.3113 0 6.4386 1.2877 8.8301 3.6792l.5519.5519-2.7594 2.7594-.5519-.5519c-1.6556-1.6556-3.8631-2.5754-6.0707-2.5754-4.78292 0-8.0942 3.6792-8.0942 8.6461 0 4.9669 3.31128 8.6461 7.9103 8.6461Z" fill="#fff"/></g><defs><clipPath id="a"><path fill="#fff" transform="translate(.265381)" d="M0 0h92.7347v64H0z"/></clipPath></defs></svg>

<svg width="93" height="64" viewBox="0 0 93 64" fill="none" xmlns="http://www.w3.org/2000/svg">
<g clip-path="url(#clip0_1_59)">
<path fill-rule="evenodd" clip-rule="evenodd" d="M24.1802 20.897H28.4113V47.0193H24.1802V20.897ZM43.1281 38.7391C43.1281 42.7862 39.8168 43.1542 38.7131 43.1542C36.1376 43.1542 35.7697 40.7627 35.7697 39.475V29.3572H31.5387V39.291C31.5387 41.6825 32.2745 43.89 33.7462 45.1777C35.0339 46.4654 36.6895 47.0173 38.7131 47.0173C40.1848 47.0173 42.0244 46.6494 43.1281 45.5456V47.0173H47.3592V29.3572H43.1281V38.7391ZM51.4061 22.9192H55.6372V29.3578H58.7645V33.4049H55.6372V47.0179H51.4061V33.4049H48.2788V29.3578H51.4061V22.9192ZM72.0096 41.6844C71.0898 42.4203 69.802 42.9722 68.5143 42.9722C65.571 42.9722 63.5474 40.7646 63.5474 37.8213C63.5474 34.8779 65.571 32.8544 68.5143 32.8544C69.802 32.8544 71.0898 33.2223 72.0096 34.1421L72.5614 34.694L75.5048 31.9346L74.769 31.3827C73.1133 29.911 70.9058 28.9912 68.5143 28.9912C63.3634 28.9912 59.5003 32.8544 59.5003 38.0052C59.5003 43.1561 63.3634 47.0193 68.5143 47.0193C70.9058 47.0193 73.1133 46.0995 74.769 44.6278L75.5048 44.0759L72.5614 41.1326L72.0096 41.6844ZM85.8063 28.9912C87.8298 28.9912 89.1176 29.5431 90.4053 30.8308C91.693 32.1185 92.2449 34.3261 92.2449 36.7175V46.8353H88.0138V36.5336C88.0138 36.4567 88.0145 36.3759 88.0152 36.2918V36.2905C88.026 34.9674 88.0432 32.8544 85.6223 32.8544C84.5186 32.8544 81.7592 33.2223 81.7592 37.2694V47.0193H77.5281V20.897H81.7592V30.4629C82.8629 29.3591 84.3346 28.9912 85.8063 28.9912ZM68.3305 40.95C69.956 40.95 71.2738 39.6322 71.2738 38.0066C71.2738 36.381 69.956 35.0632 68.3305 35.0632C66.7049 35.0632 65.3871 36.381 65.3871 38.0066C65.3871 39.6322 66.7049 40.95 68.3305 40.95ZM12.2228 42.9731C14.6143 42.9731 16.8218 42.0533 18.2935 40.5816L18.8453 40.0297L21.6047 42.7891L21.0529 43.341C18.8453 45.7325 15.5341 47.0202 12.2228 47.0202C5.41626 47.0202 0.265381 41.5014 0.265381 34.327C0.265381 27.1525 5.41626 21.6337 12.4067 21.8177C15.718 21.8177 18.8453 23.1054 21.2368 25.4969L21.7887 26.0488L19.0293 28.8082L18.4774 28.2563C16.8218 26.6007 14.6143 25.6809 12.4067 25.6809C7.62378 25.6809 4.3125 29.3601 4.3125 34.327C4.3125 39.2939 7.62378 42.9731 12.2228 42.9731Z" fill="white"/>
</g>
<defs>
<clipPath id="clip0_1_59">
<rect width="92.7347" height="64" fill="white" transform="translate(0.265381)"/>
</clipPath>
</defs>
</svg>
